X:1
T: Gray's Hornpipe
C:
R:Reel
Q: 232
K:D
M:4/4
L:1/8
|:D2|FG AA B2 A2|Bc dB A3G|FG AA BA GF|ED GF ((3EA,B,) ((3CDE)|
FG AA B2 A2|Bc dF G2 E2|FA df ((3gec) ((3ABG)|F2 E2 D2:|
|:DE|=F2 EF D2 FG|AA _BG A3E|=FE F^F GF G^G|AA d^G A3=G|
FD FA B2 A2|Bc dF G2 E2|FA df ((3gec) ((3ABG)|F2 E2 D2:|
